SVG_Azure_All/Invoice.svg

<?xml version="1.0" encoding="UTF-8" standalone="no"?>
<!-- Generated by Microsoft Visio, SVG Export Invoice.svg Page-1 -->

<svg
   xmlns:dc="http://purl.org/dc/elements/1.1/"
   xmlns:cc="http://creativecommons.org/ns#"
   xmlns:rdf="http://www.w3.org/1999/02/22-rdf-syntax-ns#"
   xmlns:svg="http://www.w3.org/2000/svg"
   xmlns="http://www.w3.org/2000/svg"
   xmlns:sodipodi="http://sodipodi.sourceforge.net/DTD/sodipodi-0.dtd"
   xmlns:inkscape="http://www.inkscape.org/namespaces/inkscape"
   width="0.66933775in"
   height="0.78735346in"
   viewBox="0 0 48.192203 56.689759"
   xml:space="preserve"
   class="st5"
   version="1.1"
   id="svg45"
   sodipodi:docname="Invoice.svg"
   style="font-size:12px;overflow:visible;color-interpolation-filters:sRGB;fill:none;fill-rule:evenodd;stroke-linecap:square;stroke-miterlimit:3"
   inkscape:version="0.92.5 (2060ec1f9f, 2020-04-08)"><metadata
   id="metadata49"><rdf:RDF><cc:Work
       rdf:about=""><dc:format>image/svg+xml</dc:format><dc:type
         rdf:resource="http://purl.org/dc/dcmitype/StillImage" /></cc:Work></rdf:RDF></metadata><sodipodi:namedview
   pagecolor="#ffffff"
   bordercolor="#666666"
   borderopacity="1"
   objecttolerance="10"
   gridtolerance="10"
   guidetolerance="10"
   inkscape:pageopacity="0"
   inkscape:pageshadow="2"
   inkscape:window-width="640"
   inkscape:window-height="480"
   id="namedview47"
   showgrid="false"
   inkscape:zoom="1.4193119"
   inkscape:cx="32.125825"
   inkscape:cy="37.786193"
   inkscape:window-x="0"
   inkscape:window-y="0"
   inkscape:window-maximized="0"
   inkscape:current-layer="svg45" />
	<style
   type="text/css"
   id="style2">
	<![CDATA[
		.st1 {fill:#005ba1;stroke:none;stroke-linecap:butt;stroke-width:34}
		.st2 {fill:url(#grad0-8);stroke:none;stroke-linecap:butt;stroke-width:34}
		.st3 {fill:url(#grad0-12);stroke:none;stroke-linecap:butt;stroke-width:34}
		.st4 {fill:#ffffff;stroke:none;stroke-linecap:butt;stroke-width:34}
		.st5 {fill:none;fill-rule:evenodd;font-size:12px;overflow:visible;stroke-linecap:square;stroke-miterlimit:3}
	]]>
	</style>

	<defs
   id="Patterns_And_Gradients">
		<linearGradient
   id="grad0-8"
   x1="-1.1861768e-06"
   y1="65.754741"
   x2="47.64968"
   y2="65.754741"
   gradientTransform="scale(0.90934506,1.0996926)"
   gradientUnits="userSpaceOnUse">
			<stop
   offset="0"
   stop-color="#5ea0ef"
   stop-opacity="1"
   id="stop4" />
			<stop
   offset="1"
   stop-color="#0078d4"
   stop-opacity="1"
   id="stop6" />
		</linearGradient>
		<linearGradient
   id="grad0-12"
   x1="-0.0035775878"
   y1="69.867703"
   x2="42.094811"
   y2="69.867703"
   gradientTransform="scale(0.89781166,1.1138194)"
   gradientUnits="userSpaceOnUse">
			<stop
   offset="0"
   stop-color="#5ea0ef"
   stop-opacity="1"
   id="stop9" />
			<stop
   offset="1"
   stop-color="#83b9f9"
   stop-opacity="1"
   id="stop11" />
		</linearGradient>
	</defs>
	<g
   id="g43"
   transform="translate(-34.000456,-34.00454)">
		<title
   id="title15">Page-1</title>
		<g
   id="group3974-1"
   transform="translate(34,-34.0157)">
			<title
   id="title17">Invoice</title>
			<g
   id="group3975-2">
				<title
   id="title19">Sheet.3975</title>
				<g
   id="shape3976-3"
   transform="translate(0,-4.28976)">
					<title
   id="title21">Sheet.3976</title>
					<path
   d="m 0,122.96 a 1.7697,1.74807 -180 0 0 1.77,1.75 h 39.79 a 1.7697,1.74807 -180 0 0 1.77,-1.75 V 74.05 A 1.7697,1.74807 -180 0 0 41.56,72.31 H 1.77 A 1.7697,1.74807 -180 0 0 0,74.05 Z"
   class="st1"
   id="path23"
   inkscape:connector-curvature="0"
   style="fill:#005ba1;stroke:none;stroke-width:34;stroke-linecap:butt" />
				</g>
				<g
   id="shape3977-5"
   transform="translate(4.86258)">
					<title
   id="title26">Sheet.3977</title>
					<path
   d="m 0,122.96 a 1.7697,1.74807 -180 0 0 1.77,1.75 h 39.79 a 1.7697,1.74807 -180 0 0 1.77,-1.75 V 74.05 A 1.7697,1.74807 -180 0 0 41.56,72.31 H 1.77 A 1.7697,1.74807 -180 0 0 0,74.05 Z"
   class="st2"
   id="path28"
   inkscape:connector-curvature="0"
   style="fill:url(#grad0-8);stroke:none;stroke-width:34;stroke-linecap:butt" />
				</g>
				<g
   id="shape3978-9"
   transform="translate(7.63027,-2.75906)">
					<title
   id="title31">Sheet.3978</title>
					<path
   d="m 0,124.27 a 0.443223,0.437805 -180 0 0 0.443212,0.43779 L 37.35,124.71 a 0.443223,0.437805 -180 0 0 0.443212,-0.4378 L 37.79,78.26 A 0.443223,0.437805 -180 0 0 37.346788,77.822205 L 0.44,77.82 a 0.443223,0.437805 -180 0 0 -0.443212,0.437795 z"
   class="st3"
   id="path33"
   inkscape:connector-curvature="0"
   style="fill:url(#grad0-12);stroke:none;stroke-width:34;stroke-linecap:butt" />
				</g>
				<g
   id="shape3979-13"
   transform="translate(12.8245,-8.17323)">
					<title
   id="title36">Sheet.3979</title>
					<path
   d="m 23.25,120.18 h 3.71 a 0.443212,0.437795 0 0 1 0.443212,0.43465 L 27.4,124.27 a 0.443212,0.437795 0 0 1 -0.443212,0.43779 L 23.25,124.71 a 0.443212,0.437795 0 0 1 -0.443212,-0.4378 L 22.81,120.61 a 0.440024,0.434646 0 0 1 0.443212,-0.43465 z M 0,120.61 v 3.66 a 0.440024,0.434646 -180 0 0 0.440024,0.43779 L 18.79,124.71 a 0.443212,0.437795 -180 0 0 0.443212,-0.4378 L 19.23,120.61 a 0.440024,0.434646 -180 0 0 -0.443212,-0.43465 L 0.43,120.18 a 0.440024,0.434646 -180 0 0 -0.427269,0.43465 z m 22.81,-9.11 v 3.66 a 0.443212,0.437795 -180 0 0 0.443212,0.43779 L 26.96,115.6 a 0.443212,0.437795 -180 0 0 0.443212,-0.43779 L 27.4,111.5 a 0.443212,0.437795 -180 0 0 -0.443212,-0.43465 L 23.25,111.06 a 0.440024,0.434646 -180 0 0 -0.443212,0.43465 z M 0,111.5 v 3.66 a 0.440024,0.434646 -180 0 0 0.427269,0.45354 L 18.77,115.61 a 0.443212,0.437795 -180 0 0 0.443212,-0.43779 L 19.22,111.5 a 0.440024,0.434646 -180 0 0 -0.443212,-0.43465 L 0.43,111.06 a 0.440024,0.434646 -180 0 0 -0.427269,0.43465 z M 5.37,89.29 a 1.25311,1.2378 0 1 1 -1.25,-1.23 1.24992,1.23465 0 0 1 1.25,1.23 z m -0.05,16.9 a 1.24992,1.23465 0 1 1 -1.24,-1.24 1.25311,1.2378 0 0 1 1.24,1.24 z m -5.29,-2.82 v -2.76 a 5.32492,5.25984 -180 0 0 1.64,0.94 5.20376,5.14016 -180 0 0 1.8,0.32 4.05268,4.00315 -180 0 0 0.94,-0.08 2.232,2.20472 -180 0 0 0.67,-0.27 1.14151,1.12756 -180 0 0 0.39,-0.4 1.01397,1.00157 -180 0 0 0.14,-0.49 A 1.09049,1.07717 -180 0 0 5.4,99.98 2.232,2.20472 -180 0 0 4.83,99.46 5.92757,5.85512 -180 0 0 3.97,98.99 C 3.65,98.83 3.28,98.67 2.9,98.53 A 5.47798,5.41102 0 0 1 0.71,97.04 3.25873,3.2189 0 0 1 0,94.94 3.39265,3.35118 0 0 1 0.4,93.28 3.35438,3.31339 0 0 1 1.47,92.14 4.76374,4.70551 0 0 1 3.04,91.48 8.21378,8.11339 0 0 1 4.93,91.27 11.5522,11.411 0 0 1 6.66,91.4 6.75022,6.66772 0 0 1 8.05,91.76 v 2.58 A 4.14515,4.09449 -180 0 0 7.37,93.96 5.48435,5.41732 -180 0 0 6.61,93.68 5.77133,5.70079 -180 0 0 5.83,93.52 5.51624,5.44882 -180 0 0 5.09,93.46 3.87412,3.82677 -180 0 0 4.22,93.55 2.20331,2.17638 -180 0 0 3.55,93.81 1.27543,1.25984 -180 0 0 3.13,94.2 0.956573,0.944882 -180 0 0 2.980137,94.713386 0.994836,0.982677 -180 0 0 3.145943,95.270866 1.91315,1.88976 -180 0 0 3.62,95.74 5.0252,4.96378 -180 0 0 4.36,96.17 c 0.29,0.14 0.62,0.29 0.98,0.44 a 10.6307,10.5008 0 0 1 1.35,0.67 4.84983,4.79055 0 0 1 1.03,0.79 3.12799,3.08976 0 0 1 0.63,1 4.07181,4.02205 0 0 1 -0.17,3.06 3.21728,3.17795 0 0 1 -1.09,1.13 4.70634,4.64882 0 0 1 -1.59,0.63 9.22137,9.10866 0 0 1 -1.91,0.19 10.5,10.3717 0 0 1 -1.96,-0.18 5.96902,5.89606 0 0 1 -1.6,-0.53 z"
   class="st4"
   id="path38"
   inkscape:connector-curvature="0"
   style="fill:#ffffff;stroke:none;stroke-width:34;stroke-linecap:butt" />
				</g>
			</g>
		</g>
	</g>
</svg>

<?xml version="1.0" encoding="UTF-8" standalone="no"?>
<!DOCTYPE svg PUBLIC "-//W3C//DTD SVG 1.1//EN" "http://www.w3.org/Graphics/SVG/1.1/DTD/svg11.dtd">
<!-- Generated by Microsoft Visio, SVG Export Invoice.svg Page-1 -->
<svg xmlns="http://www.w3.org/2000/svg" xmlns:xlink="http://www.w3.org/1999/xlink" xmlns:ev="http://www.w3.org/2001/xml-events"
		width="1.61374in" height="1.73206in" viewBox="0 0 116.189 124.709" xml:space="preserve" color-interpolation-filters="sRGB"
		class="st5">
	<style type="text/css">
	<![CDATA[
		.st1 {fill:#005ba1;stroke:none;stroke-linecap:butt;stroke-width:34}
		.st2 {fill:url(#grad0-8);stroke:none;stroke-linecap:butt;stroke-width:34}
		.st3 {fill:url(#grad0-12);stroke:none;stroke-linecap:butt;stroke-width:34}
		.st4 {fill:#ffffff;stroke:none;stroke-linecap:butt;stroke-width:34}
		.st5 {fill:none;fill-rule:evenodd;font-size:12px;overflow:visible;stroke-linecap:square;stroke-miterlimit:3}
	]]>
	</style>

	<defs id="Patterns_And_Gradients">
		<linearGradient id="grad0-8" x1="0" y1="0" x2="1" y2="0" gradientTransform="rotate(90 0.5 0.5)">
			<stop offset="0" stop-color="#5ea0ef" stop-opacity="1"/>
			<stop offset="1" stop-color="#0078d4" stop-opacity="1"/>
		</linearGradient>
		<linearGradient id="grad0-12" x1="0" y1="0" x2="1" y2="0" gradientTransform="rotate(-90 0.5 0.5)">
			<stop offset="0" stop-color="#5ea0ef" stop-opacity="1"/>
			<stop offset="1" stop-color="#83b9f9" stop-opacity="1"/>
		</linearGradient>
	</defs>
	<g>
		<title>Page-1</title>
		<g id="group3890-1" transform="translate(34,-34.0157)">
			<title>Invoice</title>
			<g id="group3891-2">
				<title>Sheet.3891</title>
				<g id="shape3892-3" transform="translate(0,-4.28976)">
					<title>Sheet.3892</title>
					<path d="M0 122.96 A1.7697 1.74807 -180 0 0 1.77 124.71 L41.56 124.71 A1.7697 1.74807 -180 0 0 43.33 122.96 L43.33
								 74.05 A1.7697 1.74807 -180 0 0 41.56 72.31 L1.77 72.31 A1.7697 1.74807 -180 0 0 0 74.05 L0 122.96
								 Z" class="st1"/>
				</g>
				<g id="shape3893-5" transform="translate(4.86258,-2.70006E-13)">
					<title>Sheet.3893</title>
					<path d="M0 122.96 A1.7697 1.74807 -180 0 0 1.77 124.71 L41.56 124.71 A1.7697 1.74807 -180 0 0 43.33 122.96 L43.33
								 74.05 A1.7697 1.74807 -180 0 0 41.56 72.31 L1.77 72.31 A1.7697 1.74807 -180 0 0 0 74.05 L0 122.96
								 Z" class="st2"/>
				</g>
				<g id="shape3894-9" transform="translate(7.63027,-2.75906)">
					<title>Sheet.3894</title>
					<path d="M0 124.27 a0.443223 0.437805 -180 0 0 0.443212 0.437795 L37.35 124.71 a0.443223 0.437805 -180 0 0 0.443212
								 -0.437795 L37.79 78.26 a0.443223 0.437805 -180 0 0 -0.443212 -0.437795 L0.44 77.82 a0.443223 0.437805
								 -180 0 0 -0.443212 0.437795 L0 124.27 Z" class="st3"/>
				</g>
				<g id="shape3895-13" transform="translate(12.8245,-8.17323)">
					<title>Sheet.3895</title>
					<path d="M23.25 120.18 L26.96 120.18 a0.443212 0.437795 0 0 1 0.443212 0.434646 L27.4 124.27 a0.443212 0.437795
								 0 0 1 -0.443212 0.437795 L23.25 124.71 a0.443212 0.437795 0 0 1 -0.443212 -0.437795 L22.81 120.61
								 a0.440024 0.434646 0 0 1 0.443212 -0.434646 ZM0 120.61 L0 124.27 a0.440024 0.434646 -180 0 0 0.440024
								 0.437795 L18.79 124.71 a0.443212 0.437795 -180 0 0 0.443212 -0.437795 L19.23 120.61 a0.440024 0.434646
								 -180 0 0 -0.443212 -0.434646 L0.43 120.18 a0.440024 0.434646 -180 0 0 -0.427269 0.434646 ZM22.81
								 111.5 L22.81 115.16 a0.443212 0.437795 -180 0 0 0.443212 0.437795 L26.96 115.6 a0.443212 0.437795
								 -180 0 0 0.443212 -0.437795 L27.4 111.5 a0.443212 0.437795 -180 0 0 -0.443212 -0.434646 L23.25 111.06
								 a0.440024 0.434646 -180 0 0 -0.443212 0.434646 ZM0 111.5 L0 115.16 a0.440024 0.434646 -180 0 0 0.427269
								 0.453543 L18.77 115.61 a0.443212 0.437795 -180 0 0 0.443212 -0.437795 L19.22 111.5 a0.440024 0.434646
								 -180 0 0 -0.443212 -0.434646 L0.43 111.06 a0.440024 0.434646 -180 0 0 -0.427269 0.434646 ZM5.37
								 89.29 A1.25311 1.2378 0 1 1 4.12 88.06 A1.24992 1.23465 0 0 1 5.37 89.29 ZM5.32 106.19 A1.24992
								 1.23465 0 1 1 4.08 104.95 A1.25311 1.2378 0 0 1 5.32 106.19 ZM0.03 103.37 L0.03 100.61 A5.32492
								 5.25984 -180 0 0 1.67 101.55 A5.20376 5.14016 -180 0 0 3.47 101.87 A4.05268 4.00315 -180 0 0 4.41
								 101.79 A2.232 2.20472 -180 0 0 5.08 101.52 A1.14151 1.12756 -180 0 0 5.47 101.12 A1.01397 1.00157
								 -180 0 0 5.61 100.63 A1.09049 1.07717 -180 0 0 5.4 99.98 A2.232 2.20472 -180 0 0 4.83 99.46 A5.92757
								 5.85512 -180 0 0 3.97 98.99 C3.65 98.83 3.28 98.67 2.9 98.53 A5.47798 5.41102 0 0 1 0.71 97.04 A3.25873
								 3.2189 0 0 1 -0 94.94 A3.39265 3.35118 0 0 1 0.4 93.28 A3.35438 3.31339 0 0 1 1.47 92.14 A4.76374
								 4.70551 0 0 1 3.04 91.48 A8.21378 8.11339 0 0 1 4.93 91.27 A11.5522 11.411 0 0 1 6.66 91.4 A6.75022
								 6.66772 0 0 1 8.05 91.76 L8.05 94.34 A4.14515 4.09449 -180 0 0 7.37 93.96 A5.48435 5.41732 -180
								 0 0 6.61 93.68 A5.77133 5.70079 -180 0 0 5.83 93.52 A5.51624 5.44882 -180 0 0 5.09 93.46 A3.87412
								 3.82677 -180 0 0 4.22 93.55 A2.20331 2.17638 -180 0 0 3.55 93.81 A1.27543 1.25984 -180 0 0 3.13
								 94.2 a0.956573 0.944882 -180 0 0 -0.149863 0.513386 a0.994836 0.982677 -180 0 0 0.165806 0.55748
								 A1.91315 1.88976 -180 0 0 3.62 95.74 A5.0252 4.96378 -180 0 0 4.36 96.17 C4.65 96.31 4.98 96.46
								 5.34 96.61 A10.6307 10.5008 0 0 1 6.69 97.28 A4.84983 4.79055 0 0 1 7.72 98.07 A3.12799 3.08976
								 0 0 1 8.35 99.07 A4.07181 4.02205 0 0 1 8.18 102.13 A3.21728 3.17795 0 0 1 7.09 103.26 A4.70634
								 4.64882 0 0 1 5.5 103.89 A9.22137 9.10866 0 0 1 3.59 104.08 A10.5 10.3717 0 0 1 1.63 103.9 A5.96902
								 5.89606 0 0 1 0.03 103.37 Z" class="st4"/>
				</g>
			</g>
		</g>
	</g>
</svg>
